src/icons/ios.svg

<?xml version="1.0" encoding="UTF-8" standalone="no"?>
<svg width="256px" height="163px" viewBox="0 0 256 163" version="1.1" xmlns="http://www.w3.org/2000/svg" xmlns:xlink="http://www.w3.org/1999/xlink" preserveAspectRatio="xMidYMid">
	<g fill="#000000">
		<path d="M9.463808,13.26432 C9.463808,16.065984 7.757824,18.13856 4.831232,18.13856 C2.394112,18.13856 0.565248,16.065984 0.565248,13.26432 C0.565248,10.58144 2.514944,8.388032 5.074944,8.388032 C7.757824,8.388032 9.463808,10.58144 9.463808,13.26432 L9.463808,13.26432 L9.463808,13.26432 Z M2.717696,159.768 L2.717696,47.70144 L7.31136,47.70144 L7.31136,159.768 L2.717696,159.768 L2.717696,159.768 Z"></path>
		<path d="M160.100352,79.920576 C160.100352,136.4208 128.735232,162.10272 94.40256,162.10272 C59.33056,162.10272 30.928896,134.3216 30.928896,82.257344 C30.928896,28.794304 60.319744,0.0752 96.872448,0.0752 C132.683776,0.073152 160.100352,28.323264 160.100352,79.920576 L160.100352,79.920576 L160.100352,79.920576 Z M35.584,81.087936 C35.584,123.928 56.346624,157.208 94.619648,157.208 C133.158912,157.208 155.262976,122.904 155.262976,80.600512 C155.262976,41.371072 137.551872,5.569984 97.13664,5.569984 C56.721408,5.569984 35.584,39.278016 35.584,81.087936 L35.584,81.087936 L35.584,81.087936 Z"></path>
		<path d="M176.959488,147.625408 C184.666112,152.761792 197.967872,157.722048 209.408,157.722048 C231.120896,157.722048 250.431488,142.532032 250.431488,120.174016 C250.431488,99.425728 237.568,88.6 215.728128,79.300032 C196.182016,70.97696 178.608128,61.943232 178.608128,39.763392 C178.608128,16.651712 196.816896,0.306624 221.564928,0.306624 C234.872832,0.306624 244.912128,4.042176 249.581568,7.310784 L247.724032,11.341248 C243.755008,8.541632 233.029632,4.974016 221.35808,4.974016 C195.203072,4.974016 183.810048,24.737216 183.810048,39.286208 C183.810048,59.381184 199.387136,66.100672 219.465728,75.673024 C242.812928,87.113152 255.184896,97.197504 255.184896,119.14592 C255.184896,142.726592 238.37696,161.869248 208.492544,161.869248 C196.11648,161.869248 181.876736,157.666752 174.872576,152.296896 L176.959488,147.625408 L176.959488,147.625408 Z"></path>
	</g>
</svg>

<svg width="256" height="163" viewBox="0 0 256 163" xmlns="http://www.w3.org/2000/svg" preserveAspectRatio="xMidYMid"><path d="M9.464 13.264c0 2.802-1.706 4.875-4.633 4.875-2.437 0-4.266-2.073-4.266-4.875 0-2.683 1.95-4.876 4.51-4.876 2.683 0 4.389 2.193 4.389 4.876zM2.718 159.768V47.701H7.31v112.067H2.718zM160.1 79.92c0 56.5-31.365 82.183-65.697 82.183-35.072 0-63.474-27.781-63.474-79.846 0-53.463 29.39-82.182 65.943-82.182C132.684.073 160.1 28.323 160.1 79.921zM35.584 81.089c0 42.84 20.763 76.12 59.036 76.12 38.539 0 60.643-34.304 60.643-76.607 0-39.23-17.711-75.031-58.126-75.031-40.416 0-61.553 33.708-61.553 75.518zm141.376 66.536c7.706 5.137 21.008 10.097 32.448 10.097 21.713 0 41.023-15.19 41.023-37.548 0-20.748-12.863-31.574-34.703-40.874-19.546-8.323-37.12-17.357-37.12-39.537 0-23.111 18.209-39.456 42.957-39.456 13.308 0 23.347 3.735 28.017 7.004l-1.858 4.03c-3.969-2.8-14.694-6.367-26.366-6.367-26.155 0-37.548 19.763-37.548 34.312 0 20.095 15.577 26.815 35.656 36.387 23.347 11.44 35.719 21.525 35.719 43.473 0 23.58-16.808 42.723-46.692 42.723-12.377 0-26.616-4.202-33.62-9.572l2.086-4.672z"/></svg>
